src/SVG/Add.svg

<svg className="HomeSVG" width="800px" height="800px" viewBox="0 0 24 24" fill="none" xmlns="http://www.w3.org/2000/svg">
    <path
        d="M11 8C11 7.44772 11.4477 7 12 7C12.5523 7 13 7.44772 13 8V11H16C16.5523 11 17 11.4477 17 12C17 12.5523 16.5523 13 16 13H13V16C13 16.5523 12.5523 17 12 17C11.4477 17 11 16.5523 11 16V13H8C7.44771 13 7 12.5523 7 12C7 11.4477 7.44772 11 8 11H11V8Z"
        fill="#0F0F0F" />
    <path fill-rule="evenodd" clip-rule="evenodd"
        d="M23 12C23 18.0751 18.0751 23 12 23C5.92487 23 1 18.0751 1 12C1 5.92487 5.92487 1 12 1C18.0751 1 23 5.92487 23 12ZM3.00683 12C3.00683 16.9668 7.03321 20.9932 12 20.9932C16.9668 20.9932 20.9932 16.9668 20.9932 12C20.9932 7.03321 16.9668 3.00683 12 3.00683C7.03321 3.00683 3.00683 7.03321 3.00683 12Z"
        fill="#0F0F0F" />
</svg>

<svg className="HomeSVG" viewBox="0 0 24 24" xmlns="http://www.w3.org/2000/svg">
    <path
        d="m12 0a12 12 0 1 0 12 12 12.013 12.013 0 0 0 -12-12zm0 22a10 10 0 1 1 10-10 10.011 10.011 0 0 1 -10 10zm5-10a1 1 0 0 1 -1 1h-3v3a1 1 0 0 1 -2 0v-3h-3a1 1 0 0 1 0-2h3v-3a1 1 0 0 1 2 0v3h3a1 1 0 0 1 1 1z" />
</svg>
